images/preim-3.svg

<svg width="50" height="51" viewBox="0 0 50 51" fill="none" xmlns="http://www.w3.org/2000/svg">
<g clip-path="url(#clip0_1157_41471)">
<circle cx="25" cy="25.6987" r="25" fill="white"/>
<path d="M31.3443 10.6987H20.0432C19.0979 10.6987 18.3289 11.4677 18.3289 12.4131V25.5212C18.2283 25.658 18.0608 25.8792 17.8969 26.0957C17.29 26.8975 16.3729 28.1093 15.8259 28.9703C14.7473 30.671 14.7265 32.3703 15.7564 34.6526C15.7636 34.6686 15.7714 34.6842 15.7799 34.6995C15.7799 34.6995 17.0695 37.0316 17.1248 37.1337C17.4503 37.7352 17.9952 38.742 17.9607 39.5333C17.9603 39.5425 17.9601 39.5517 17.9601 39.561V41.4376C17.9601 42.4087 18.7501 43.1987 19.7212 43.1987H25.4572C26.4283 43.1987 27.2183 42.4087 27.2183 41.4376L27.2129 39.7933C27.2132 39.1604 27.3089 38.8269 27.43 38.405C27.5127 38.1169 27.6063 37.7903 27.6735 37.3478C27.6753 37.3364 27.6767 37.3249 27.6778 37.3134C27.7717 36.3388 27.5184 35.3976 27.2503 34.4012C27.0981 33.8358 26.9358 33.2323 26.8196 32.5649H31.3444C32.2897 32.5649 33.0587 31.7959 33.0587 30.8505V24.4828C33.0587 24.1323 32.7745 23.848 32.4239 23.848C32.0734 23.848 31.7892 24.1323 31.7892 24.4828V30.8504C31.7892 31.0957 31.5896 31.2953 31.3444 31.2953H29.847V11.9683H31.3443C31.5895 11.9683 31.7891 12.1678 31.7891 12.4131V26.2808C31.7891 26.6313 32.0734 26.9156 32.4239 26.9156C32.7744 26.9156 33.0586 26.6313 33.0586 26.2808V12.4131C33.0586 11.4677 32.2896 10.6987 31.3443 10.6987ZM25.4571 41.9292H19.7211C19.4547 41.9292 19.2296 41.7041 19.2296 41.4376V39.5738C19.2732 38.4362 18.6276 37.2434 18.2412 36.5294C18.1884 36.4318 16.9029 34.1069 16.9029 34.1069C16.0588 32.2259 16.058 30.9748 16.8978 29.6507C17.2654 29.0719 17.8233 28.3078 18.3289 27.632V30.8505C18.3289 31.7959 19.0979 32.5649 20.0432 32.5649H22.0785V34.683C22.0785 35.0336 22.3627 35.3178 22.7133 35.3178C23.0639 35.3178 23.3481 35.0336 23.3481 34.683V27.9986C23.3481 27.426 23.8139 26.96 24.3866 26.96C24.6652 26.96 24.9281 27.0701 25.1267 27.27C25.3219 27.4663 25.4286 27.7238 25.4269 27.9948C25.4256 28.2124 25.4223 29.6437 25.3968 30.308C25.3743 30.8955 25.3992 31.442 25.4532 31.9522C25.4545 31.9892 25.5037 32.3653 25.5261 32.5125C25.6541 33.3528 25.8507 34.0863 26.0243 34.731C26.2701 35.6445 26.4827 36.4342 26.4156 37.1747C26.361 37.5272 26.2874 37.7836 26.2096 38.0547C26.0787 38.5111 25.9433 38.9829 25.9433 39.7966C25.9433 39.7988 25.9433 39.801 25.9434 39.8032L25.9487 41.4375C25.9487 41.7041 25.7236 41.9292 25.4571 41.9292ZM28.5774 31.2954H26.6734C26.6571 30.9955 26.6952 28.2183 26.6964 28.0024C26.7001 27.3907 26.4623 26.8128 26.027 26.3749C25.5883 25.9336 25.0056 25.6905 24.3865 25.6905C23.1139 25.6905 22.0785 26.7259 22.0785 27.9986V31.2954H20.0431C19.7979 31.2954 19.5984 31.0958 19.5984 30.8505V12.4131C19.5984 12.1678 19.7979 11.9683 20.0431 11.9683H28.5774V31.2954Z" fill="#F53B49"/>
</g>
<defs>
<clipPath id="clip0_1157_41471">
<rect width="50" height="50" fill="white" transform="translate(0 0.69873)"/>
</clipPath>
</defs>
</svg>

<svg width="50" height="51" fill="none" xmlns="http://www.w3.org/2000/svg"><g clip-path="url(#clip0_1157_41471)"><circle cx="25" cy="25.699" r="25" fill="#fff"/><path d="M31.344 10.699h-11.3c-.946 0-1.715.769-1.715 1.714v13.108c-.1.137-.268.358-.432.575-.607.802-1.524 2.013-2.071 2.874-1.079 1.701-1.1 3.4-.07 5.683a2649.814 2649.814 0 001.368 2.481c.326.601.871 1.608.837 2.4v1.904c0 .97.79 1.76 1.76 1.76h5.736c.971 0 1.761-.79 1.761-1.76l-.005-1.645c0-.633.096-.966.217-1.388a7.812 7.812 0 00.248-1.092c.094-.974-.16-1.915-.428-2.912a20.31 20.31 0 01-.43-1.836h4.524c.946 0 1.715-.77 1.715-1.714v-6.368a.635.635 0 00-1.27 0v6.367c0 .246-.2.445-.445.445h-1.497V11.968h1.497c.245 0 .445.2.445.445v13.868a.635.635 0 001.27 0V12.413c0-.945-.77-1.714-1.715-1.714zm-5.887 31.23h-5.736a.498.498 0 01-.491-.491v-1.864c.043-1.138-.602-2.33-.989-3.045l-1.338-2.422c-.844-1.881-.845-3.132-.005-4.456.367-.58.925-1.343 1.43-2.019v3.218c0 .946.77 1.715 1.715 1.715h2.035v2.118a.635.635 0 101.27 0v-6.684a1.04 1.04 0 012.079-.004c-.001.217-.005 1.649-.03 2.313a11.407 11.407 0 00.13 2.205c.127.84.324 1.573.497 2.218.246.913.459 1.703.392 2.444-.055.352-.129.609-.206.88-.131.456-.267.928-.267 1.742v.006l.006 1.635a.498.498 0 01-.492.491zm3.12-10.634h-1.904c-.016-.3.022-3.077.023-3.293a2.275 2.275 0 00-.669-1.627 2.299 2.299 0 00-1.64-.684 2.31 2.31 0 00-2.309 2.308v3.296h-2.035a.445.445 0 01-.445-.445V12.413c0-.245.2-.445.445-.445h8.534v19.327z" fill="#F53B49"/></g><defs><clipPath id="clip0_1157_41471"><path fill="#fff" transform="translate(0 .699)" d="M0 0h50v50H0z"/></clipPath></defs></svg>
